X:1
T:[ID 2-50a]
T:[ID 2-50a]
T:Bezeichnung standardisiert: Menuett Menuet 36.
T:Urheber unbekannt Erstbeleg: 1767 (Datum in der schriftlichen Quelle) Datum in der hier transkribierten schriftlichen Quelle: 1775
C:Urheber unbekannt
C:Erstbeleg: 1767 (Datum in der schriftlichen Quelle)
C:Datum in der hier transkribierten schriftlichen Quelle: 1775
L:1/8
M:3/4
K:D
V:1 treble 
V:1
 d4 (3cde | d2 E2 F2 | F4 (3GAB | A2 E2 F2 | d4 B^G | c2 B,2 C2 | (3DEF E2 D2 | C6 :: F4 (3FGA | %9
 GB=cABd | ^G4 (3GAB | AcdBce | d4 (3cde | d2 E2 F2 | (3GFE D2 E2 | F6 :| %16

